X:311
T:Wi a Hundred Pipers
S:Many
Z:Nigel Gatherer
M:6/8
L:1/8
K:G
G/A/|B2 D DED|E2 G G2 E|D2 B BAG|A3- A2 G/A/|
B2 D DED|E2 G G2 E|D2 B ABA|G3- G2:|
B/c/|d2 d dBd|e2 g g2 e|d2 B BAG|A3- A2 B/c/|
d2 d dBd|e2 g g2 e|d2 B ABA|G3- G2:|
